images/3233084.svg

<?xml version="1.0" encoding="UTF-8"?>
<svg xmlns="http://www.w3.org/2000/svg" xmlns:xlink="http://www.w3.org/1999/xlink" width="300pt" height="300pt" viewBox="0 0 300 300" version="1.1">
<defs>
<g>
<symbol overflow="visible" id="glyph0-0">
<path style="stroke:none;" d="M 0.640625 2.296875 L 0.640625 -9.171875 L 7.140625 -9.171875 L 7.140625 2.296875 Z M 1.375 1.578125 L 6.421875 1.578125 L 6.421875 -8.4375 L 1.375 -8.4375 Z M 1.375 1.578125 "/>
</symbol>
<symbol overflow="visible" id="glyph0-1">
<path style="stroke:none;" d="M 1.28125 -9.484375 L 3 -9.484375 L 7.203125 -1.546875 L 7.203125 -9.484375 L 8.453125 -9.484375 L 8.453125 0 L 6.71875 0 L 2.515625 -7.921875 L 2.515625 0 L 1.28125 0 Z M 1.28125 -9.484375 "/>
</symbol>
</g>
</defs>
<g id="surface52493">
<rect x="0" y="0" width="300" height="300" style="fill:rgb(100%,100%,100%);fill-opacity:1;stroke:none;"/>
<path style="fill:none;stroke-width:1.2;stroke-linecap:butt;stroke-linejoin:miter;stroke:rgb(0%,0%,0%);stroke-opacity:1;stroke-miterlimit:10;" d="M 44.050781 193.800781 L 35.25 160.808594 "/>
<path style="fill:none;stroke-width:1.2;stroke-linecap:butt;stroke-linejoin:miter;stroke:rgb(0%,0%,0%);stroke-opacity:1;stroke-miterlimit:10;" d="M 50.933594 188.433594 L 43.894531 162.035156 "/>
<path style="fill:none;stroke-width:1.2;stroke-linecap:butt;stroke-linejoin:miter;stroke:rgb(0%,0%,0%);stroke-opacity:1;stroke-miterlimit:10;" d="M 77.027344 202.675781 L 44.050781 193.800781 "/>
<path style="fill:none;stroke-width:1.2;stroke-linecap:butt;stroke-linejoin:miter;stroke:rgb(0%,0%,0%);stroke-opacity:1;stroke-miterlimit:10;" d="M 35.25 160.808594 L 59.421875 136.6875 "/>
<path style="fill:none;stroke-width:1.2;stroke-linecap:butt;stroke-linejoin:miter;stroke:rgb(0%,0%,0%);stroke-opacity:1;stroke-miterlimit:10;" d="M 59.421875 136.6875 L 92.398438 145.5625 "/>
<path style="fill:none;stroke-width:1.2;stroke-linecap:butt;stroke-linejoin:miter;stroke:rgb(0%,0%,0%);stroke-opacity:1;stroke-miterlimit:10;" d="M 60.632812 145.335938 L 87.011719 152.433594 "/>
<path style="fill:none;stroke-width:1.2;stroke-linecap:butt;stroke-linejoin:miter;stroke:rgb(0%,0%,0%);stroke-opacity:1;stroke-miterlimit:10;" d="M 59.421875 136.6875 L 50.621094 103.695312 "/>
<path style="fill:none;stroke-width:1.2;stroke-linecap:butt;stroke-linejoin:miter;stroke:rgb(0%,0%,0%);stroke-opacity:1;stroke-miterlimit:10;" d="M 92.398438 145.5625 L 101.199219 178.558594 "/>
<path style="fill:none;stroke-width:1.2;stroke-linecap:butt;stroke-linejoin:miter;stroke:rgb(0%,0%,0%);stroke-opacity:1;stroke-miterlimit:10;" d="M 101.199219 178.558594 L 77.027344 202.675781 "/>
<path style="fill:none;stroke-width:1.2;stroke-linecap:butt;stroke-linejoin:miter;stroke:rgb(0%,0%,0%);stroke-opacity:1;stroke-miterlimit:10;" d="M 93.105469 175.28125 L 73.769531 194.578125 "/>
<path style="fill:none;stroke-width:1.2;stroke-linecap:butt;stroke-linejoin:miter;stroke:rgb(0%,0%,0%);stroke-opacity:1;stroke-miterlimit:10;" d="M 101.199219 178.558594 L 134.171875 187.429688 "/>
<path style="fill:none;stroke-width:1.2;stroke-linecap:butt;stroke-linejoin:miter;stroke:rgb(0%,0%,0%);stroke-opacity:1;stroke-miterlimit:10;" d="M 134.171875 187.429688 L 138.574219 203.925781 "/>
<path style="fill:none;stroke-width:1.2;stroke-linecap:butt;stroke-linejoin:miter;stroke:rgb(0%,0%,100%);stroke-opacity:1;stroke-miterlimit:10;" d="M 138.574219 203.925781 L 142.976562 220.425781 "/>
<path style="fill:none;stroke-width:1.2;stroke-linecap:butt;stroke-linejoin:miter;stroke:rgb(0%,0%,0%);stroke-opacity:1;stroke-miterlimit:10;" d="M 142.816406 188.660156 L 146.335938 201.855469 "/>
<path style="fill:none;stroke-width:1.2;stroke-linecap:butt;stroke-linejoin:miter;stroke:rgb(0%,0%,100%);stroke-opacity:1;stroke-miterlimit:10;" d="M 146.335938 201.855469 L 149.859375 215.054688 "/>
<path style="fill:none;stroke-width:1.2;stroke-linecap:butt;stroke-linejoin:miter;stroke:rgb(0%,0%,100%);stroke-opacity:1;stroke-miterlimit:10;" d="M 158.347656 163.3125 L 146.257812 175.371094 "/>
<path style="fill:none;stroke-width:1.2;stroke-linecap:butt;stroke-linejoin:miter;stroke:rgb(0%,0%,0%);stroke-opacity:1;stroke-miterlimit:10;" d="M 146.257812 175.371094 L 134.171875 187.429688 "/>
<path style="fill:none;stroke-width:1.2;stroke-linecap:butt;stroke-linejoin:miter;stroke:rgb(0%,0%,100%);stroke-opacity:1;stroke-miterlimit:10;" d="M 142.976562 220.425781 L 159.460938 224.863281 "/>
<path style="fill:none;stroke-width:1.2;stroke-linecap:butt;stroke-linejoin:miter;stroke:rgb(0%,0%,0%);stroke-opacity:1;stroke-miterlimit:10;" d="M 159.460938 224.863281 L 175.949219 229.296875 "/>
<path style=" stroke:none;fill-rule:nonzero;fill:rgb(100%,100%,100%);fill-opacity:1;" d="M 137.976562 212.425781 L 147.976562 212.425781 L 147.976562 228.425781 L 137.976562 228.425781 Z M 137.976562 212.425781 "/>
<g style="fill:rgb(0%,0%,100%);fill-opacity:1;">
  <use xlink:href="#glyph0-1" x="137.976562" y="224.801758"/>
</g>
<path style="fill:none;stroke-width:1.2;stroke-linecap:butt;stroke-linejoin:miter;stroke:rgb(0%,0%,0%);stroke-opacity:1;stroke-miterlimit:10;" d="M 175.949219 229.296875 L 200.121094 205.179688 "/>
<path style="fill:none;stroke-width:1.2;stroke-linecap:butt;stroke-linejoin:miter;stroke:rgb(0%,0%,0%);stroke-opacity:1;stroke-miterlimit:10;" d="M 172.691406 221.199219 L 192.03125 201.902344 "/>
<path style="fill:none;stroke-width:1.2;stroke-linecap:butt;stroke-linejoin:miter;stroke:rgb(0%,0%,0%);stroke-opacity:1;stroke-miterlimit:10;" d="M 200.121094 205.179688 L 191.320312 172.183594 "/>
<path style="fill:none;stroke-width:1.2;stroke-linecap:butt;stroke-linejoin:miter;stroke:rgb(0%,0%,0%);stroke-opacity:1;stroke-miterlimit:10;" d="M 191.320312 172.183594 L 174.832031 167.75 "/>
<path style="fill:none;stroke-width:1.2;stroke-linecap:butt;stroke-linejoin:miter;stroke:rgb(0%,0%,100%);stroke-opacity:1;stroke-miterlimit:10;" d="M 174.832031 167.75 L 158.347656 163.3125 "/>
<path style="fill:none;stroke-width:1.2;stroke-linecap:butt;stroke-linejoin:miter;stroke:rgb(0%,0%,0%);stroke-opacity:1;stroke-miterlimit:10;" d="M 185.933594 179.058594 L 172.746094 175.507812 "/>
<path style="fill:none;stroke-width:1.2;stroke-linecap:butt;stroke-linejoin:miter;stroke:rgb(0%,0%,100%);stroke-opacity:1;stroke-miterlimit:10;" d="M 172.746094 175.507812 L 159.554688 171.957031 "/>
<path style="fill:none;stroke-width:1.2;stroke-linecap:butt;stroke-linejoin:miter;stroke:rgb(0%,0%,0%);stroke-opacity:1;stroke-miterlimit:10;" d="M 191.320312 172.183594 L 203.40625 160.125 "/>
<path style="fill:none;stroke-width:1.2;stroke-linecap:butt;stroke-linejoin:miter;stroke:rgb(0%,0%,100%);stroke-opacity:1;stroke-miterlimit:10;" d="M 203.40625 160.125 L 215.492188 148.066406 "/>
<path style=" stroke:none;fill-rule:nonzero;fill:rgb(100%,100%,100%);fill-opacity:1;" d="M 153.347656 155.3125 L 163.347656 155.3125 L 163.347656 171.3125 L 153.347656 171.3125 Z M 153.347656 155.3125 "/>
<g style="fill:rgb(0%,0%,100%);fill-opacity:1;">
  <use xlink:href="#glyph0-1" x="153.347656" y="167.688477"/>
</g>
<path style="fill:none;stroke-width:1.2;stroke-linecap:butt;stroke-linejoin:miter;stroke:rgb(0%,0%,100%);stroke-opacity:1;stroke-miterlimit:10;" d="M 215.492188 148.066406 L 212.839844 131.199219 "/>
<path style="fill:none;stroke-width:1.2;stroke-linecap:butt;stroke-linejoin:miter;stroke:rgb(0%,0%,0%);stroke-opacity:1;stroke-miterlimit:10;" d="M 212.839844 131.199219 L 210.1875 114.332031 "/>
<path style="fill:none;stroke-width:1.2;stroke-linecap:butt;stroke-linejoin:miter;stroke:rgb(0%,0%,0%);stroke-opacity:1;stroke-miterlimit:10;" d="M 249.214844 153.445312 L 232.351562 150.753906 "/>
<path style="fill:none;stroke-width:1.2;stroke-linecap:butt;stroke-linejoin:miter;stroke:rgb(0%,0%,100%);stroke-opacity:1;stroke-miterlimit:10;" d="M 232.351562 150.753906 L 215.492188 148.066406 "/>
<path style=" stroke:none;fill-rule:nonzero;fill:rgb(100%,100%,100%);fill-opacity:1;" d="M 210.492188 140.066406 L 220.492188 140.066406 L 220.492188 156.066406 L 210.492188 156.066406 Z M 210.492188 140.066406 "/>
<g style="fill:rgb(0%,0%,100%);fill-opacity:1;">
  <use xlink:href="#glyph0-1" x="210.492188" y="152.442383"/>
</g>
<path style="fill:none;stroke-width:1.2;stroke-linecap:butt;stroke-linejoin:miter;stroke:rgb(0%,0%,0%);stroke-opacity:1;stroke-miterlimit:10;" d="M 210.1875 114.332031 L 240.628906 98.863281 "/>
<path style="fill:none;stroke-width:1.2;stroke-linecap:butt;stroke-linejoin:miter;stroke:rgb(0%,0%,0%);stroke-opacity:1;stroke-miterlimit:10;" d="M 216.871094 119.949219 L 241.226562 107.574219 "/>
<path style="fill:none;stroke-width:1.2;stroke-linecap:butt;stroke-linejoin:miter;stroke:rgb(0%,0%,0%);stroke-opacity:1;stroke-miterlimit:10;" d="M 240.628906 98.863281 L 252.691406 110.949219 "/>
<path style="fill:none;stroke-width:1.2;stroke-linecap:butt;stroke-linejoin:miter;stroke:rgb(0%,0%,100%);stroke-opacity:1;stroke-miterlimit:10;" d="M 252.691406 110.949219 L 264.75 123.035156 "/>
<path style="fill:none;stroke-width:1.2;stroke-linecap:butt;stroke-linejoin:miter;stroke:rgb(0%,0%,100%);stroke-opacity:1;stroke-miterlimit:10;" d="M 264.75 123.035156 L 256.980469 138.238281 "/>
<path style="fill:none;stroke-width:1.2;stroke-linecap:butt;stroke-linejoin:miter;stroke:rgb(0%,0%,0%);stroke-opacity:1;stroke-miterlimit:10;" d="M 256.980469 138.238281 L 249.214844 153.445312 "/>
<path style="fill:none;stroke-width:1.2;stroke-linecap:butt;stroke-linejoin:miter;stroke:rgb(0%,0%,100%);stroke-opacity:1;stroke-miterlimit:10;" d="M 256.042969 122.421875 L 249.828125 134.585938 "/>
<path style="fill:none;stroke-width:1.2;stroke-linecap:butt;stroke-linejoin:miter;stroke:rgb(0%,0%,0%);stroke-opacity:1;stroke-miterlimit:10;" d="M 249.828125 134.585938 L 243.613281 146.75 "/>
<path style=" stroke:none;fill-rule:nonzero;fill:rgb(100%,100%,100%);fill-opacity:1;" d="M 259.75 115.035156 L 269.75 115.035156 L 269.75 131.035156 L 259.75 131.035156 Z M 259.75 115.035156 "/>
<g style="fill:rgb(0%,0%,100%);fill-opacity:1;">
  <use xlink:href="#glyph0-1" x="259.75" y="127.411133"/>
</g>
<path style="fill:none;stroke-width:1.2;stroke-linecap:butt;stroke-linejoin:miter;stroke:rgb(0%,0%,0%);stroke-opacity:1;stroke-miterlimit:10;" d="M 50.621094 103.695312 L 46.21875 87.199219 "/>
<path style="fill:none;stroke-width:1.2;stroke-linecap:butt;stroke-linejoin:miter;stroke:rgb(0%,0%,100%);stroke-opacity:1;stroke-miterlimit:10;" d="M 46.21875 87.199219 L 41.820312 70.703125 "/>
<path style="fill:none;stroke-width:1.2;stroke-linecap:butt;stroke-linejoin:miter;stroke:rgb(0%,0%,0%);stroke-opacity:1;stroke-miterlimit:10;" d="M 57.503906 98.324219 L 53.984375 85.128906 "/>
<path style="fill:none;stroke-width:1.2;stroke-linecap:butt;stroke-linejoin:miter;stroke:rgb(0%,0%,100%);stroke-opacity:1;stroke-miterlimit:10;" d="M 53.984375 85.128906 L 50.460938 71.929688 "/>
<path style="fill:none;stroke-width:1.2;stroke-linecap:butt;stroke-linejoin:miter;stroke:rgb(0%,0%,0%);stroke-opacity:1;stroke-miterlimit:10;" d="M 41.976562 102.464844 L 38.457031 89.269531 "/>
<path style="fill:none;stroke-width:1.2;stroke-linecap:butt;stroke-linejoin:miter;stroke:rgb(0%,0%,100%);stroke-opacity:1;stroke-miterlimit:10;" d="M 38.457031 89.269531 L 34.933594 76.070312 "/>
<path style=" stroke:none;fill-rule:nonzero;fill:rgb(100%,100%,100%);fill-opacity:1;" d="M 36.820312 62.703125 L 46.820312 62.703125 L 46.820312 78.703125 L 36.820312 78.703125 Z M 36.820312 62.703125 "/>
<g style="fill:rgb(0%,0%,100%);fill-opacity:1;">
  <use xlink:href="#glyph0-1" x="36.820312" y="75.079102"/>
</g>
</g>
</svg>

<svg xmlns="http://www.w3.org/2000/svg" xmlns:xlink="http://www.w3.org/1999/xlink" width="300pt" height="300pt" viewBox="0 0 300 300"><defs><symbol overflow="visible"><path d="M.64 2.297v-11.47h6.5v11.47zm.735-.72h5.047V-8.436H1.375zm0 0"/></symbol><symbol overflow="visible" id="a"><path d="M1.28-9.484H3l4.203 7.937v-7.937h1.25V0H6.72L2.515-7.922V0H1.28zm0 0"/></symbol></defs><g><path fill="#fff" d="M0 0h300v300H0z"/><path d="M44.05 193.8l-8.8-32.99M50.934 188.434l-7.04-26.4M77.027 202.676L44.05 193.8M35.25 160.81l24.172-24.123M59.422 136.688l32.976 8.875M60.633 145.336l26.38 7.098M59.422 136.688l-8.8-32.993M92.398 145.563l8.8 32.996M101.2 178.56l-24.173 24.116M93.105 175.28L73.77 194.58M101.2 178.56l32.972 8.87M134.172 187.43l4.402 16.496" stroke-width="1.2" stroke="#000" stroke-miterlimit="10" fill="none"/><path d="M138.574 203.926l4.403 16.5" stroke-width="1.2" stroke="#00f" stroke-miterlimit="10" fill="none"/><path d="M142.816 188.66l3.52 13.195" stroke-width="1.2" stroke="#000" stroke-miterlimit="10" fill="none"/><path d="M146.336 201.855l3.523 13.2M158.348 163.313l-12.09 12.058" stroke-width="1.2" stroke="#00f" stroke-miterlimit="10" fill="none"/><path d="M146.258 175.37l-12.086 12.06" stroke-width="1.2" stroke="#000" stroke-miterlimit="10" fill="none"/><path d="M142.977 220.426l16.484 4.437" stroke-width="1.2" stroke="#00f" stroke-miterlimit="10" fill="none"/><path d="M159.46 224.863l16.49 4.434" stroke-width="1.2" stroke="#000" stroke-miterlimit="10" fill="none"/><path d="M137.977 212.426h10v16h-10zm0 0" fill="#fff"/><use xlink:href="#a" x="137.977" y="224.802" fill="#00f"/><path d="M175.95 229.297l24.17-24.117M172.69 221.2l19.34-19.298M200.12 205.18l-8.8-32.996M191.32 172.184l-16.488-4.434" stroke-width="1.2" stroke="#000" stroke-miterlimit="10" fill="none"/><path d="M174.832 167.75l-16.484-4.438" stroke-width="1.2" stroke="#00f" stroke-miterlimit="10" fill="none"/><path d="M185.934 179.06l-13.188-3.552" stroke-width="1.2" stroke="#000" stroke-miterlimit="10" fill="none"/><path d="M172.746 175.508l-13.19-3.55" stroke-width="1.2" stroke="#00f" stroke-miterlimit="10" fill="none"/><path d="M191.32 172.184l12.086-12.06" stroke-width="1.2" stroke="#000" stroke-miterlimit="10" fill="none"/><path d="M203.406 160.125l12.086-12.06" stroke-width="1.2" stroke="#00f" stroke-miterlimit="10" fill="none"/><path d="M153.348 155.313h10v16h-10zm0 0" fill="#fff"/><use xlink:href="#a" x="153.348" y="167.688" fill="#00f"/><path d="M215.492 148.066L212.84 131.2" stroke-width="1.2" stroke="#00f" stroke-miterlimit="10" fill="none"/><path d="M212.84 131.2l-2.653-16.868M249.215 153.445l-16.863-2.69" stroke-width="1.2" stroke="#000" stroke-miterlimit="10" fill="none"/><path d="M232.352 150.754l-16.86-2.688" stroke-width="1.2" stroke="#00f" stroke-miterlimit="10" fill="none"/><path d="M210.492 140.066h10v16h-10zm0 0" fill="#fff"/><use xlink:href="#a" x="210.492" y="152.442" fill="#00f"/><path d="M210.188 114.332l30.44-15.47M216.87 119.95l24.357-12.376M240.63 98.863l12.06 12.086" stroke-width="1.2" stroke="#000" stroke-miterlimit="10" fill="none"/><path d="M252.69 110.95l12.06 12.085M264.75 123.035l-7.77 15.203" stroke-width="1.2" stroke="#00f" stroke-miterlimit="10" fill="none"/><path d="M256.98 138.238l-7.765 15.207" stroke-width="1.2" stroke="#000" stroke-miterlimit="10" fill="none"/><path d="M256.043 122.422l-6.215 12.164" stroke-width="1.2" stroke="#00f" stroke-miterlimit="10" fill="none"/><path d="M249.828 134.586l-6.215 12.164" stroke-width="1.2" stroke="#000" stroke-miterlimit="10" fill="none"/><path d="M259.75 115.035h10v16h-10zm0 0" fill="#fff"/><use xlink:href="#a" x="259.75" y="127.411" fill="#00f"/><path d="M50.62 103.695L46.22 87.2" stroke-width="1.2" stroke="#000" stroke-miterlimit="10" fill="none"/><path d="M46.22 87.2l-4.4-16.497" stroke-width="1.2" stroke="#00f" stroke-miterlimit="10" fill="none"/><path d="M57.504 98.324l-3.52-13.195" stroke-width="1.2" stroke="#000" stroke-miterlimit="10" fill="none"/><path d="M53.984 85.13l-3.523-13.2" stroke-width="1.2" stroke="#00f" stroke-miterlimit="10" fill="none"/><path d="M41.977 102.465l-3.52-13.195" stroke-width="1.2" stroke="#000" stroke-miterlimit="10" fill="none"/><path d="M38.457 89.27l-3.523-13.2" stroke-width="1.2" stroke="#00f" stroke-miterlimit="10" fill="none"/><path d="M36.82 62.703h10v16h-10zm0 0" fill="#fff"/><use xlink:href="#a" x="36.82" y="75.079" fill="#00f"/></g></svg>
